X:43
T:Cuckold's song - Parsons
%%VWML:SBG-1-2-158-0
F:http://www.vwml.org/record/SBG/1/2/158
Z:Original Sibelius transcriptions by M. & S. Graebe
L:1/8
M:2/4
I:linebreak $
K:C
V:1 treble nm="P1"
V:2 treble 
V:1
 E | GGA G | GEDE | FFAE | D3 E | FGAB | GEDG | AGAB | c3 c |$ ccBA | AGGG | AGAB | c3 G | cccc | %14
w: ||||||||||||||
 BGEG | AGEF | G3 z |$"^chorus" AG E2 | EF G2 | AGA/B/B | c3 | cccc | BAGG | AGEF |$ G2 | G2 G2 | %26
w: |||||||||||Hey! Boys!|
 EF G2 | AGA G/F/ | AGA G | A2 GF | E/E/D C2 | %31
w: |||||
V:2
 x | x4 | x4 | x4 | x4 | x2 AA | x4 | x4 | x4 |$ x4 | x4 | x4 | x4 | x4 | x4 | x4 | x4 |$ x4 | x4 | %19
 x4 | x3 | x4 | x4 | x4 |$ x2 | x4 | x4 | x4 | x4 | x4 | x4 | %31
T:Cuckold's song - Parsons pencilled bars below
F:http://www.vwml.org/record/SBG/1/2/158
Z:Original Sibelius transcriptions by M. & S. Graebe
L:1/8
M:2/4
I:linebreak $
K:C
V:1 treble nm="P1" snm="Voice"
V:2 treble 
L:1/4
V:1
 A | GA G2 | GA | G2 B2 | A2 GF | E2 D C2 | %6
V:2
 F/ | E x | x | x2 | x2 | x5/2 | %6
T:Cuckold's song - Fone
F:http://www.vwml.org/record/SBG/1/2/158
Z:Original Sibelius transcriptions by M. & S. Graebe
M:4/4
I:linebreak $
K:Eb
V:1 treble nm="P1"
V:1
 G2 | E2 EF E2 C2 | c2 c=B c3 d | e3 f e2 c2 | BGEF G2 C>C | C6 CD |$ E3 F D2 D2 | C2 C2 C2 C2 | %8
 c2 c2 c>=B c2 | e3 f e2 c2 | B2 G2 E2 F2 | G3 F E3 D | E4 z2 CD |$ E2 C2 E2 C2 | %14
[M:6/8] c2 c c2 =B | c2"^recitative" z2 z2 | c2 cd e2 |[M:4/4] C2 c c =B c d e c |$ ecd=B c4 | %19
 _B2 cB cd B2 | e2 f2 e2 c2 | c2 B2 G2 E2 | G2 F2 E2 D2 | E4 x4 | %24
T:Cuckold's song - Arnold's  Nightingale
F:http://www.vwml.org/record/SBG/1/2/158
Z:Original Sibelius transcriptions by M. & S. Graebe
M:9/8
I:linebreak $
K:G
V:1 treble nm="P1"
V:1
 B2 B B2 A G3 | d2 d d2 B d2 z | B2 B B2 A GF E | E E e e2 ^d e2 B |$ d2 g g2 f g2 B | %5
w: |||||
 B2 d d2 B d2 B | B2 B B2 A GF E | E2 e e2 ^d e2 z |$ B2 B B2 A G2 z | d2 d d2 B d2 z | %10
w: |||Tiddle de dum de de|Tiddle de dum de de|
 B2 B B2 A GF E | E2 e e2 ^d e2 z | %12
w: Tiddle de dum de de _ and|Tiddle de dum de dee.|

